svgs/light/barcode-scan.svg

<svg xmlns="http://www.w3.org/2000/svg" viewBox="0 0 640 512"><!--! Font Awesome Pro 6.0.0-alpha3 by @fontawesome - https://fontawesome.com License - https://fontawesome.com/license (Commercial License) --><path d="M624 240h-608C7.156 240 0 247.2 0 255.1C0 264.8 7.156 272 16 272h608C632.8 272 640 264.8 640 256C640 247.2 632.8 240 624 240zM96 48C96 39.16 88.84 32 80 32S64 39.16 64 48V192h32V48zM159.1 47.1C159.1 39.16 152.8 32 144 32S128 39.16 128 48V192h31.1V47.1zM320 48C320 39.16 312.8 32 304 32S288 39.16 288 48V192h32V48zM384 48C384 39.16 376.8 32 368 32S352 39.16 352 48V192h32V48zM576 48C576 39.16 568.8 32 560 32S544 39.16 544 48V192h32V48zM480 47.1C480 39.16 472.8 32 464 32S448 39.16 448 47.1V192h32V47.1zM224 48C224 39.16 216.8 32 208 32S191.1 39.16 191.1 47.1L191.1 192H224V48zM352 464c0 8.844 7.156 16 16 16s16-7.156 16-16V320h-32V464zM64 464C64 472.8 71.16 480 80 480S96 472.8 96 464V320H64V464zM544 464c0 8.844 7.156 16 16 16s16-7.156 16-16V320h-32V464zM448 464c0 8.844 7.156 16 16 16s16-7.156 16-16V320h-32V464zM128 464C128 472.8 135.2 480 144 480s15.1-7.156 15.1-15.1V320H128V464zM288 464C288 472.8 295.2 480 304 480s16-7.156 16-16V320H288V464zM191.1 464C191.1 472.8 199.2 480 208 480S224 472.8 224 464V320H191.1L191.1 464z"/></svg>

<svg xmlns="http://www.w3.org/2000/svg" viewBox="0 0 640 512"><!--! Font Awesome Pro 6.4.2 by @fontawesome - https://fontawesome.com License - https://fontawesome.com/license (Commercial License) Copyright 2023 Fonticons, Inc. --><path d="M64 48V192H96V48c0-8.8-7.2-16-16-16s-16 7.2-16 16zm0 416c0 8.8 7.2 16 16 16s16-7.2 16-16V320H64V464zm96 0V320H128V464c0 8.8 7.2 16 16 16s16-7.2 16-16zM128 48V192h32V48c0-8.8-7.2-16-16-16s-16 7.2-16 16zm64 416c0 8.8 7.2 16 16 16s16-7.2 16-16V320H192V464zm0-416V192h32V48c0-8.8-7.2-16-16-16s-16 7.2-16 16zm96 416c0 8.8 7.2 16 16 16s16-7.2 16-16V320H288V464zm0-416V192h32V48c0-8.8-7.2-16-16-16s-16 7.2-16 16zm64 416c0 8.8 7.2 16 16 16s16-7.2 16-16V320H352V464zm0-416V192h32V48c0-8.8-7.2-16-16-16s-16 7.2-16 16zm96 416c0 8.8 7.2 16 16 16s16-7.2 16-16V320H448V464zm0-416V192h32V48c0-8.8-7.2-16-16-16s-16 7.2-16 16zm96 416c0 8.8 7.2 16 16 16s16-7.2 16-16V320H544V464zm0-416V192h32V48c0-8.8-7.2-16-16-16s-16 7.2-16 16zM0 256c0 8.8 7.2 16 16 16l608 0c8.8 0 16-7.2 16-16s-7.2-16-16-16L16 240c-8.8 0-16 7.2-16 16z"/></svg>
